src/assets/img/providers-white/apollo.svg

<svg width="126" height="34" viewBox="0 0 126 34" fill="none" xmlns="http://www.w3.org/2000/svg">
<g clip-path="url(#clip0_4051_6753)">
<path fill-rule="evenodd" clip-rule="evenodd" d="M66.3825 7.96455C66.252 10.4742 66.0797 12.2668 65.9453 13.4117C65.9081 13.7375 65.8639 14.0068 65.7997 14.2308C65.269 13.8968 64.3696 13.2265 62.857 11.8901C59.5496 8.96724 58.5632 8.16881 58.5632 8.16881C58.5632 8.16881 59.1426 8.80881 62.359 12.3989C63.6588 13.8492 64.3489 14.7216 64.7099 15.2462C64.5049 15.3007 64.2643 15.344 63.9808 15.3824C62.7847 15.5361 60.94 15.7373 58.5577 15.8895C54.1614 16.1722 50.6451 16.3066 50.6451 16.3066C50.6451 16.3066 53.763 16.3486 58.5655 16.6041C61.2724 16.747 63.1381 16.9366 64.2559 17.0756C64.4083 17.1008 64.5464 17.1285 64.6717 17.1601C64.3234 17.7017 63.6574 18.5891 62.3909 20.0333C59.4805 23.3539 58.6859 24.3434 58.6859 24.3434C58.6859 24.3434 59.3228 23.7624 62.8996 20.5328C64.3973 19.1801 65.2757 18.4852 65.7909 18.1343C65.8432 18.3024 65.8827 18.4972 65.9157 18.7239C65.9258 18.8007 66.308 22.0591 66.4603 24.4592C66.7406 28.8742 66.875 32.4161 66.875 32.4161C66.875 32.4161 66.917 29.275 67.1702 24.4515C67.3201 21.618 67.519 19.6987 67.6587 18.5957C67.6868 18.4262 67.7199 18.276 67.7608 18.1425C68.292 18.4777 69.1901 19.1482 70.6973 20.48C74.0061 23.4012 74.991 24.2005 74.991 24.2005C74.991 24.2005 74.4123 23.5597 71.1951 19.9697C69.9277 18.5554 69.2399 17.691 68.8719 17.1626C69.0696 17.1121 69.2996 17.0714 69.5679 17.0353C70.7634 16.8815 72.6111 16.6787 74.9966 16.5265C79.3928 16.2446 82.9091 16.1094 82.9091 16.1094C82.9091 16.1094 79.7913 16.0683 74.9888 15.8135C72.2647 15.6682 70.3913 15.4771 69.2759 15.3389C69.0915 15.3078 68.9283 15.2728 68.7838 15.2316C69.1365 14.6878 69.8012 13.8056 71.0475 12.3834C73.9595 9.06202 74.7541 8.07244 74.7541 8.07244C74.7541 8.07244 74.1172 8.65502 70.5403 11.8839C69.1306 13.1572 68.2694 13.8476 67.7433 14.2167C67.7007 14.0649 67.6671 13.8925 67.6385 13.6961C67.4808 12.5147 67.2587 10.5519 67.094 7.95687C66.8136 3.54345 66.6785 0 66.6785 0C66.6785 0 66.6373 3.14182 66.3825 7.96455ZM6.38855 25.3495C6.42657 25.3495 6.46154 25.3697 6.47942 25.4015L11.3573 33.8422C11.3767 33.8748 11.3767 33.9145 11.3573 33.9471C11.3394 33.9797 11.3045 34 11.2672 34H9.94677C9.90869 34 9.87451 33.9797 9.85511 33.9479C9.85511 33.9479 9.0325 32.5467 8.97501 32.4496H2.52427C2.46757 32.5467 1.64423 33.9479 1.64423 33.9479C1.62562 33.9797 1.59065 34 1.55416 34H0.246128C0.208044 34 0.173868 33.9797 0.154461 33.9471C0.13585 33.9145 0.13585 33.8748 0.154461 33.8422L5.02071 25.4015C5.03932 25.3697 5.07277 25.3495 5.11079 25.3495H6.38855ZM3.30025 31.0903H8.19909C8.13851 30.9855 7.80989 30.4181 7.41148 29.7304L7.40635 29.7215L7.40573 29.7204L7.40444 29.7182C6.72612 28.5472 5.84972 27.0342 5.74775 26.8571C5.60435 27.1037 3.96435 29.9412 3.44615 30.8378L3.30025 31.0903ZM16.8589 25.3495C18.2477 25.3495 19.3188 25.4559 20.0412 25.6656C21.3484 26.0369 22.0117 26.7747 22.0117 27.8584C22.0117 28.938 21.3484 29.6736 20.0419 30.0456C19.3196 30.2545 18.2445 30.3617 16.8472 30.3617H13.6704V33.895C13.6704 33.9525 13.623 33.9999 13.5655 33.9999H12.4159C12.3577 33.9999 12.3111 33.9525 12.3111 33.895V25.4544C12.3111 25.3969 12.3577 25.3495 12.4159 25.3495H16.8589ZM17.2861 29.0018C19.52 29.0018 20.6524 28.6173 20.6524 27.8584C20.6524 27.4863 20.3837 27.2113 19.8314 27.0172C19.252 26.813 18.365 26.7096 17.1952 26.7096H13.6704V29.0018H17.2861ZM31.9096 26.2234C31.0319 25.643 29.7573 25.3495 28.1176 25.3495C26.4787 25.3495 25.2025 25.6431 24.3256 26.2234C23.2762 26.934 22.7449 28.0968 22.7449 29.6813C22.7449 31.2682 23.2762 32.4333 24.3248 33.144C25.1986 33.7125 26.4748 34 28.1176 34C29.7596 34 31.0358 33.7125 31.9088 33.1448C32.9589 32.4333 33.4902 31.2682 33.4902 29.6813C33.4902 28.0968 32.9589 26.934 31.9096 26.2234ZM30.9604 32.1296C30.3608 32.4815 29.4039 32.6593 28.1176 32.6593C26.8266 32.6593 25.8682 32.4814 25.2678 32.1296C24.4957 31.683 24.1042 30.8588 24.1042 29.6813C24.1042 28.4999 24.4957 27.6735 25.2678 27.2268C25.8643 26.8835 26.8228 26.7095 28.1176 26.7095C29.4039 26.7095 30.3608 26.8874 30.9604 27.2392C31.7379 27.6905 32.1302 28.5123 32.1302 29.6812C32.1302 30.855 31.7379 31.6782 30.9604 32.1296ZM36.0955 32.6593H43.2957C43.3532 32.6593 43.4006 32.7067 43.4006 32.765V33.8951C43.4006 33.9525 43.3532 33.9999 43.2957 33.9999H34.841C34.7835 33.9999 34.7362 33.9525 34.7362 33.8951V25.4543C34.7362 25.3969 34.7835 25.3495 34.841 25.3495H35.9913C36.0488 25.3495 36.0955 25.3969 36.0955 25.4543V32.6593ZM52.9459 32.6593H45.7463V25.4543C45.7463 25.3969 45.6997 25.3495 45.6414 25.3495H44.4919C44.4344 25.3495 44.3871 25.3969 44.3871 25.4543V33.8951C44.3871 33.9525 44.4344 33.9999 44.4919 33.9999H52.9459C53.0041 33.9999 53.0515 33.9525 53.0515 33.8951V32.765C53.0515 32.7067 53.0041 32.6593 52.9459 32.6593ZM58.3954 25.3495C60.0351 25.3495 61.3112 25.643 62.189 26.2234C63.2368 26.934 63.7681 28.0968 63.7681 29.6813C63.7681 31.2682 63.2367 32.4333 62.1866 33.1448C61.3144 33.7125 60.039 34 58.3954 34C56.7534 34 55.478 33.7125 54.6026 33.144C53.554 32.4333 53.0235 31.2682 53.0235 29.6813C53.0235 28.0968 53.554 26.934 54.6042 26.2234C55.4811 25.6431 56.7565 25.3495 58.3954 25.3495ZM58.3954 32.6593C59.6832 32.6593 60.6394 32.4815 61.2383 32.1296C62.0158 31.6782 62.4088 30.855 62.4088 29.6812C62.4088 28.5123 62.0158 27.6905 61.2383 27.2392C60.6394 26.8874 59.6832 26.7095 58.3954 26.7095C57.1006 26.7095 56.1421 26.8835 55.5463 27.2268C54.7751 27.6735 54.3828 28.4999 54.3828 29.6813C54.3828 30.8588 54.7751 31.683 55.5463 32.1296C56.1467 32.4814 57.1045 32.6593 58.3954 32.6593ZM79.851 29.0017H75.0284C74.9693 29.0017 74.922 29.0475 74.922 29.1065V30.2561C74.922 30.3143 74.9693 30.3616 75.0284 30.3616H78.5959V31.5314C78.2424 31.9906 77.7158 32.3128 77.0245 32.4853C76.7876 32.5412 76.5064 32.5847 76.1888 32.6142C75.8703 32.6436 75.4982 32.6593 75.0835 32.6593C73.8042 32.6593 72.8449 32.4814 72.2321 32.1287C71.4601 31.6829 71.0686 30.8588 71.0686 29.6812C71.0686 28.5076 71.4601 27.6858 72.2321 27.2392C72.8333 26.8873 73.7917 26.7095 75.0843 26.7095C75.9573 26.7095 76.6447 26.7771 77.127 26.9123C77.8572 27.1088 78.3954 27.48 78.7294 28.0168C78.7589 28.0626 78.8164 28.0797 78.8638 28.0556L79.9038 27.5546C79.9295 27.5422 79.9496 27.5189 79.9589 27.4917C79.9675 27.463 79.9629 27.4335 79.9496 27.4078C79.1745 26.0423 77.5378 25.3495 75.0842 25.3495C73.4436 25.3495 72.1675 25.6432 71.2913 26.2233C70.2405 26.934 69.7084 28.0968 69.7084 29.6813C69.7084 31.2596 70.2405 32.4209 71.2891 33.1316C72.1621 33.7079 73.439 33.9999 75.0833 33.9999C76.5499 33.9999 77.7242 33.7538 78.5957 33.2838V33.895C78.5957 33.9525 78.6431 33.9999 78.7006 33.9999H79.8509C79.9092 33.9999 79.9557 33.9525 79.9557 33.895V29.1065C79.9559 29.0475 79.9093 29.0017 79.851 29.0017ZM86.9931 25.4015L91.8703 33.8422C91.8904 33.8748 91.8904 33.9145 91.8703 33.9471C91.8524 33.9797 91.8174 34 91.7801 34H90.4597C90.4224 34 90.3883 33.9797 90.3703 33.9479C90.3703 33.9479 89.5454 32.5467 89.4895 32.4496H83.0379C82.9813 32.5467 82.1579 33.9479 82.1579 33.9479C82.1385 33.9797 82.1043 34 82.067 34H80.759C80.7218 34 80.6868 33.9797 80.6681 33.9471C80.6487 33.9145 80.6487 33.8748 80.6674 33.8422L85.5336 25.4015C85.5522 25.3697 85.588 25.3495 85.6237 25.3495H86.9022C86.9403 25.3495 86.9744 25.3697 86.9931 25.4015ZM83.8139 31.0903H88.7128C88.6257 30.9397 87.9857 29.8349 87.38 28.7895L87.3359 28.7132L86.2606 26.8571L83.8139 31.0903ZM103.3 25.3495H102.168C102.132 25.3495 102.097 25.3698 102.078 25.4015C102.078 25.4015 98.1625 32.1918 97.9885 32.4947L93.8936 25.4015C93.8757 25.3698 93.8408 25.3495 93.8028 25.3495H92.6788C92.6198 25.3495 92.5739 25.3968 92.5739 25.4543V33.8951C92.5739 33.9526 92.6198 33.9999 92.6788 33.9999H93.8283C93.8858 33.9999 93.9332 33.9526 93.9332 33.8951V28.1853C94.2835 28.7911 97.2615 33.9472 97.2615 33.9472C97.2817 33.9797 97.3151 33.9999 97.3532 33.9999H98.6246C98.6611 33.9999 98.6969 33.9797 98.7148 33.9472C98.7148 33.9472 101.695 28.7911 102.044 28.1853V33.8951C102.044 33.9526 102.092 33.9999 102.15 33.9999H103.3C103.357 33.9999 103.404 33.9526 103.404 33.8951V25.4543C103.404 25.3968 103.357 25.3495 103.3 25.3495ZM113.841 26.6039C113.841 26.6621 113.794 26.7096 113.735 26.7096H106.536V29.0016H113.735C113.794 29.0016 113.841 29.0475 113.841 29.1065V30.2561C113.841 30.3143 113.794 30.3617 113.735 30.3617H106.536V32.6592H113.735C113.794 32.6592 113.841 32.7067 113.841 32.7649V33.895C113.841 33.9525 113.794 33.9999 113.735 33.9999H105.282C105.225 33.9999 105.177 33.9525 105.177 33.895V25.4544C105.177 25.3969 105.225 25.3495 105.282 25.3495H113.735C113.794 25.3495 113.841 25.3969 113.841 25.4544V26.6039ZM123.877 29.3232C123.159 29.1096 122.082 29.0018 120.677 29.0018L119.159 28.9737C118.753 28.9559 118.429 28.9303 118.198 28.8984C117.053 28.736 116.474 28.3865 116.474 27.8576C116.474 27.0862 117.704 26.6963 120.134 26.6963L121.628 26.7204C122.027 26.7359 122.349 26.7608 122.582 26.7926C123.656 26.9301 124.294 27.2237 124.481 27.6649C124.502 27.7131 124.553 27.7387 124.603 27.7255L125.721 27.4452C125.75 27.4382 125.773 27.4203 125.788 27.3946C125.802 27.3706 125.805 27.3418 125.797 27.3138C125.551 26.4431 124.78 25.8567 123.507 25.5724C122.842 25.4241 121.826 25.3495 120.49 25.3495C118.998 25.3495 117.888 25.4451 117.185 25.6346C115.811 26.0011 115.114 26.75 115.114 27.8583C115.114 28.9217 115.768 29.6526 117.059 30.0324C117.798 30.2506 118.852 30.3618 120.192 30.3618L121.76 30.3858C122.175 30.4021 122.499 30.4262 122.727 30.4581C123.904 30.6196 124.499 30.9746 124.499 31.5106C124.499 32.2827 123.274 32.6726 120.858 32.6726L119.402 32.6485C119.009 32.633 118.688 32.6089 118.445 32.5763C117.359 32.4427 116.706 32.1584 116.503 31.7304C116.481 31.6846 116.429 31.6605 116.38 31.6745L115.261 31.9859C115.234 31.9937 115.21 32.0132 115.196 32.0372C115.182 32.0628 115.18 32.0924 115.189 32.1187C115.457 32.9676 116.232 33.5347 117.493 33.8019C118.15 33.9332 119.155 33.9999 120.485 33.9999C121.954 33.9999 123.065 33.9075 123.787 33.7281C125.163 33.3599 125.859 32.6143 125.859 31.5098C125.859 30.4348 125.191 29.6992 123.877 29.3232Z" fill="white"/>
</g>
<defs>
<clipPath id="clip0_4051_6753">
<rect width="125.719" height="34" fill="white" transform="translate(0.140503)"/>
</clipPath>
</defs>
</svg>

<svg width="126" height="34" fill="none" xmlns="http://www.w3.org/2000/svg"><g clip-path="url(#a)"><path fill-rule="evenodd" clip-rule="evenodd" d="M66.382 7.965a84.988 84.988 0 0 1-.437 5.447 5.166 5.166 0 0 1-.145.819c-.531-.334-1.43-1.005-2.943-2.34-3.307-2.924-4.294-3.722-4.294-3.722s.58.64 3.796 4.23c1.3 1.45 1.99 2.323 2.35 2.847a6.035 6.035 0 0 1-.728.136c-1.196.154-3.041.355-5.423.508-4.397.282-7.913.417-7.913.417s3.118.042 7.92.297c2.707.143 4.573.333 5.69.472.153.025.291.052.417.084-.349.542-1.015 1.43-2.281 2.873-2.91 3.32-3.705 4.31-3.705 4.31s.637-.58 4.214-3.81c1.497-1.353 2.376-2.048 2.89-2.399.053.168.093.363.126.59.01.077.392 3.335.544 5.735.28 4.415.415 7.957.415 7.957s.042-3.141.295-7.964c.15-2.834.349-4.753.489-5.856.028-.17.06-.32.102-.454.531.336 1.43 1.006 2.936 2.338 3.31 2.921 4.294 3.72 4.294 3.72s-.579-.64-3.796-4.23c-1.267-1.415-1.955-2.279-2.323-2.807.198-.05.428-.092.696-.128a85.666 85.666 0 0 1 5.429-.509c4.396-.281 7.912-.417 7.912-.417s-3.118-.04-7.92-.296c-2.724-.145-4.598-.336-5.713-.474a4.593 4.593 0 0 1-.492-.107c.352-.544 1.017-1.426 2.263-2.849 2.913-3.321 3.707-4.31 3.707-4.31s-.637.582-4.214 3.81c-1.41 1.274-2.27 1.965-2.797 2.334a4.163 4.163 0 0 1-.105-.52 84.632 84.632 0 0 1-.544-5.74C66.814 3.543 66.679 0 66.679 0s-.042 3.142-.297 7.965ZM6.39 25.349c.038 0 .073.02.09.052l4.878 8.441c.02.033.02.072 0 .105a.103.103 0 0 1-.09.053h-1.32a.107.107 0 0 1-.092-.052l-.88-1.498h-6.45l-.88 1.498a.106.106 0 0 1-.09.052H.245a.106.106 0 0 1-.092-.158l4.867-8.44a.104.104 0 0 1 .09-.053h1.278ZM3.3 31.09h4.9l-.789-1.36-.005-.009-.002-.003-1.656-2.86c-.144.246-1.784 3.083-2.302 3.98l-.146.252Zm13.559-5.74c1.389 0 2.46.106 3.182.316 1.307.37 1.97 1.109 1.97 2.192 0 1.08-.663 1.816-1.97 2.188-.721.209-1.797.316-3.194.316H13.67v3.533a.105.105 0 0 1-.104.105h-1.15a.105.105 0 0 1-.105-.105v-8.44c0-.058.047-.105.105-.105h4.443Zm.427 3.652c2.234 0 3.366-.385 3.366-1.144 0-.372-.268-.647-.82-.84-.58-.205-1.467-.308-2.637-.308H13.67v2.292h3.616Zm14.624-2.779c-.878-.58-2.153-.873-3.792-.873-1.64 0-2.915.293-3.792.873-1.05.711-1.581 1.874-1.581 3.458 0 1.587.531 2.752 1.58 3.463.874.569 2.15.856 3.793.856 1.642 0 2.918-.288 3.79-.855 1.05-.712 1.582-1.877 1.582-3.464 0-1.584-.531-2.747-1.58-3.458Zm-.95 5.907c-.6.351-1.556.53-2.842.53-1.291 0-2.25-.179-2.85-.53-.772-.447-1.164-1.271-1.164-2.449 0-1.181.392-2.008 1.164-2.454.596-.343 1.555-.518 2.85-.518 1.286 0 2.243.178 2.842.53.778.451 1.17 1.273 1.17 2.442 0 1.174-.392 1.997-1.17 2.449Zm5.136.53h7.2c.057 0 .105.047.105.105v1.13a.105.105 0 0 1-.105.105H34.84a.105.105 0 0 1-.105-.105v-8.44c0-.058.047-.105.105-.105h1.15c.058 0 .105.047.105.104v7.205Zm16.85 0h-7.2v-7.206a.105.105 0 0 0-.105-.105h-1.15a.105.105 0 0 0-.104.105v8.441c0 .057.047.105.105.105h8.454a.106.106 0 0 0 .105-.105v-1.13a.106.106 0 0 0-.105-.106Zm5.45-7.31c1.64 0 2.915.293 3.793.873 1.048.711 1.58 1.874 1.58 3.458 0 1.587-.532 2.752-1.582 3.464-.873.567-2.148.855-3.792.855-1.642 0-2.917-.288-3.792-.856-1.049-.71-1.58-1.876-1.58-3.463 0-1.584.531-2.747 1.581-3.458.877-.58 2.153-.873 3.791-.873Zm0 7.31c1.287 0 2.243-.178 2.842-.53.778-.452 1.17-1.275 1.17-2.449 0-1.169-.392-1.99-1.17-2.442-.599-.352-1.555-.53-2.843-.53-1.294 0-2.253.175-2.849.518-.77.447-1.163 1.273-1.163 2.454 0 1.178.392 2.002 1.163 2.449.6.351 1.559.53 2.85.53Zm21.455-3.658h-4.823a.105.105 0 0 0-.106.105v1.15c0 .057.047.105.106.105h3.568v1.17c-.354.459-.88.78-1.572.953-.236.056-.518.1-.835.13-.319.029-.69.044-1.105.044-1.28 0-2.24-.178-2.852-.53-.772-.446-1.163-1.27-1.163-2.448 0-1.173.391-1.995 1.163-2.442.601-.352 1.56-.53 2.852-.53.873 0 1.56.068 2.043.203.73.197 1.268.568 1.602 1.105.03.046.087.063.135.039l1.04-.501a.11.11 0 0 0 .055-.063.112.112 0 0 0-.01-.084c-.775-1.366-2.411-2.059-4.865-2.059-1.64 0-2.916.294-3.793.874-1.05.711-1.583 1.874-1.583 3.458 0 1.579.532 2.74 1.581 3.45.873.577 2.15.869 3.794.869 1.467 0 2.641-.246 3.513-.716v.611c0 .057.047.105.105.105h1.15a.105.105 0 0 0 .105-.105v-4.789a.104.104 0 0 0-.105-.104Zm7.142-3.6 4.877 8.44c.02.033.02.072 0 .105a.103.103 0 0 1-.09.053h-1.32a.103.103 0 0 1-.09-.052s-.825-1.401-.88-1.498h-6.452l-.88 1.498a.107.107 0 0 1-.091.052h-1.308a.105.105 0 0 1-.09-.053.103.103 0 0 1-.002-.105l4.867-8.44a.107.107 0 0 1 .09-.053h1.278c.038 0 .072.02.091.052Zm-3.18 5.688h4.9l-1.333-2.3-.044-.077-1.075-1.856-2.447 4.233Zm19.487-5.74h-1.132a.107.107 0 0 0-.09.051s-3.916 6.79-4.09 7.094l-4.094-7.093a.104.104 0 0 0-.091-.053h-1.124a.104.104 0 0 0-.105.105v8.441c0 .058.046.105.105.105h1.15a.105.105 0 0 0 .104-.105v-5.71l3.328 5.762c.02.033.054.053.092.053h1.272c.036 0 .072-.02.09-.053l3.329-5.762v5.71c0 .058.048.105.106.105h1.15a.105.105 0 0 0 .104-.105v-8.44a.105.105 0 0 0-.104-.105Zm10.541 1.254a.106.106 0 0 1-.106.106h-7.199v2.292h7.199c.059 0 .106.046.106.105v1.15a.106.106 0 0 1-.106.105h-7.199v2.297h7.199c.059 0 .106.048.106.106v1.13a.105.105 0 0 1-.106.105h-8.453a.106.106 0 0 1-.105-.105v-8.44c0-.058.048-.105.105-.105h8.453c.059 0 .106.047.106.104v1.15Zm10.036 2.72c-.718-.214-1.795-.322-3.2-.322l-1.518-.028c-.406-.018-.73-.044-.961-.076-1.145-.162-1.724-.511-1.724-1.04 0-.772 1.23-1.162 3.66-1.162l1.494.024c.399.016.721.04.954.073 1.074.137 1.712.43 1.899.872a.104.104 0 0 0 .122.06l1.118-.28a.105.105 0 0 0 .076-.131c-.246-.87-1.017-1.457-2.29-1.742-.665-.148-1.681-.223-3.017-.223-1.492 0-2.602.096-3.305.286-1.374.366-2.071 1.115-2.071 2.223 0 1.064.654 1.795 1.945 2.174.739.219 1.793.33 3.133.33l1.568.024c.415.016.739.04.967.072 1.177.162 1.772.517 1.772 1.053 0 .772-1.225 1.162-3.641 1.162l-1.456-.025c-.393-.015-.714-.04-.957-.072-1.086-.133-1.739-.418-1.942-.846a.105.105 0 0 0-.123-.056l-1.119.312a.114.114 0 0 0-.065.051.101.101 0 0 0-.007.082c.268.849 1.043 1.416 2.304 1.683.657.131 1.662.198 2.992.198 1.469 0 2.58-.093 3.302-.272 1.376-.368 2.072-1.114 2.072-2.218 0-1.075-.668-1.81-1.982-2.187Z" fill="#fff"/></g><defs><clipPath id="a"><path fill="#fff" transform="translate(.14)" d="M0 0h125.719v34H0z"/></clipPath></defs></svg>
